website/src/assets/star-outline.svg

<?xml version="1.0" encoding="utf-8"?><!-- Uploaded to: SVG Repo, www.svgrepo.com, Generator: SVG Repo Mixer Tools -->
<svg width="800px" height="800px" viewBox="0 0 24 24" fill="none" xmlns="http://www.w3.org/2000/svg">
<path d="M11.245 4.174C11.4765 3.50808 11.5922 3.17513 11.7634 3.08285C11.9115 3.00298 12.0898 3.00298 12.238 3.08285C12.4091 3.17513 12.5248 3.50808 12.7563 4.174L14.2866 8.57639C14.3525 8.76592 14.3854 8.86068 14.4448 8.93125C14.4972 8.99359 14.5641 9.04218 14.6396 9.07278C14.725 9.10743 14.8253 9.10947 15.0259 9.11356L19.6857 9.20852C20.3906 9.22288 20.743 9.23007 20.8837 9.36432C21.0054 9.48051 21.0605 9.65014 21.0303 9.81569C20.9955 10.007 20.7146 10.2199 20.1528 10.6459L16.4387 13.4616C16.2788 13.5829 16.1989 13.6435 16.1501 13.7217C16.107 13.7909 16.0815 13.8695 16.0757 13.9507C16.0692 14.0427 16.0982 14.1387 16.1563 14.3308L17.506 18.7919C17.7101 19.4667 17.8122 19.8041 17.728 19.9793C17.6551 20.131 17.5108 20.2358 17.344 20.2583C17.1513 20.2842 16.862 20.0829 16.2833 19.6802L12.4576 17.0181C12.2929 16.9035 12.2106 16.8462 12.1211 16.8239C12.042 16.8043 11.9593 16.8043 11.8803 16.8239C11.7908 16.8462 11.7084 16.9035 11.5437 17.0181L7.71805 19.6802C7.13937 20.0829 6.85003 20.2842 6.65733 20.2583C6.49056 20.2358 6.34626 20.131 6.27337 19.9793C6.18915 19.8041 6.29123 19.4667 6.49538 18.7919L7.84503 14.3308C7.90313 14.1387 7.93218 14.0427 7.92564 13.9507C7.91986 13.8695 7.89432 13.7909 7.85123 13.7217C7.80246 13.6435 7.72251 13.5829 7.56262 13.4616L3.84858 10.6459C3.28678 10.2199 3.00588 10.007 2.97101 9.81569C2.94082 9.65014 2.99594 9.48051 3.11767 9.36432C3.25831 9.23007 3.61074 9.22289 4.31559 9.20852L8.9754 9.11356C9.176 9.10947 9.27631 9.10743 9.36177 9.07278C9.43726 9.04218 9.50414 8.99359 9.55657 8.93125C9.61593 8.86068 9.64887 8.76592 9.71475 8.57639L11.245 4.174Z" stroke="#000000" stroke-width="2" stroke-linecap="round" stroke-linejoin="round"/>
</svg>

<!--
背景：
 - 旧资源来自开源库，固定黑色描边导致暗色主题对比度失衡。
目的：
 - 将描边颜色绑定到 currentColor，以继承语义文本色并自动适配主题。
关键决策与取舍：
 - 保留原始路径以维持星形比例；移除冗余 XML 头与水印注释，确保打包稳定。
影响范围：
 - 任意使用 star-outline 图标的组件在暗色模式下会呈现浅色描边。
演进与TODO：
 - 如需粗细可调版本，可通过 stroke-width 自定义或引入可变图标集。
-->
<svg
  width="24"
  height="24"
  viewBox="0 0 24 24"
  fill="none"
  xmlns="http://www.w3.org/2000/svg"
  role="img"
  aria-hidden="true"
>
  <title>Star Outline</title>
  <path
    d="M11.245 4.174c.231-.666.347-.999.518-1.091a.5.5 0 0 1 .475 0c.171.092.287.425.518 1.091l1.53 4.402c.066.19.099.285.158.355a.5.5 0 0 0 .195.142c.085.034.186.036.387.04l4.66.095c.705.014 1.057.021 1.198.151a.5.5 0 0 1 .147.455c-.035.191-.316.404-.878.83l-3.714 2.816c-.16.118-.24.179-.288.257-.043.07-.068.148-.074.23-.006.091.023.187.081.378l1.35 4.461c.204.675.306 1.012.222 1.187a.5.5 0 0 1-.384.279c-.193.026-.482-.175-1.061-.578l-3.826-2.662c-.165-.114-.247-.172-.336-.194a.5.5 0 0 0-.321 0c-.09.022-.172.08-.337.194l-3.826 2.662c-.579.403-.868.604-1.061.578a.5.5 0 0 1-.384-.279c-.084-.175.018-.512.222-1.187l1.35-4.461c.058-.192.087-.288.081-.379-.006-.081-.032-.16-.081-.238-.048-.078-.128-.138-.288-.26l-3.714-2.815c-.561-.426-.842-.639-.877-.83a.5.5 0 0 1 .146-.451c.141-.134.493-.141 1.198-.155l4.66-.094c.2-.004.301-.006.386-.041a.5.5 0 0 0 .195-.142c.059-.07.092-.165.158-.355l1.53-4.402Z"
    stroke="currentColor"
    stroke-width="2"
    stroke-linecap="round"
    stroke-linejoin="round"
  />
</svg>
